raw/symbols/spy.svg

<svg width="36" height="36" viewBox="0 0 36 36" fill="none" xmlns="http://www.w3.org/2000/svg">
<rect width="36" height="36" rx="18" fill="#66BE92"/>
<path d="M8.03815 17.2123C9.0619 18.1967 10.0463 19.0236 10.0463 20.7561C10.0463 22.6461 9.10126 23.9454 6.93564 23.9454C5.40001 23.9454 3.94314 23.3155 3.82502 20.8742L3.78564 19.9686L5.87252 19.8504L5.9119 20.4017C5.99065 21.5042 6.38439 21.8586 6.93564 21.8586C7.40814 21.8586 7.6444 21.5829 7.6444 20.9923C7.6444 20.2048 6.77815 19.4961 5.9119 18.7873C4.6519 17.6848 3.94315 16.7398 3.94315 15.0861C3.94315 13.3929 4.92752 12.0542 6.97502 12.0542C8.55002 12.0542 9.77064 12.7629 9.88876 15.0861L9.92814 15.7161L7.92001 15.8342V15.2829C7.92001 14.5742 7.68377 14.0623 7.05377 14.0623C6.6994 14.0623 6.34501 14.2986 6.34501 14.8892C6.30564 15.7554 6.77815 16.0704 8.03815 17.2123ZM28.395 14.2198H28.71C29.1431 14.2198 29.5369 14.4561 29.5369 15.9523C29.5369 17.4092 29.0644 17.6454 28.6313 17.6454H28.395V14.2198ZM32.2144 23.788L30.8756 18.5511C31.6631 17.9604 32.1356 16.8973 32.1356 15.5979C32.1356 13.4323 30.9544 12.2904 29.1431 12.2904H25.7963V23.788H28.395V19.1417H28.5919L29.6156 23.788H32.2144ZM22.2919 18.0392C22.2919 21.2286 21.8588 21.8979 21.1106 21.8979H20.7169V14.2198H21.1106C21.8588 14.2198 22.2919 14.8498 22.2919 18.0392ZM18.1181 23.788H21.4256C23.7488 23.788 24.93 21.9373 24.93 18.0392C24.93 14.1411 23.7488 12.2904 21.4256 12.2904H18.1181V23.788ZM14.7713 16.0704C14.7713 17.6848 14.3381 17.9604 13.9444 17.9604H13.59V14.2198H13.9444C14.3381 14.2198 14.7713 14.4954 14.7713 16.0704ZM14.1413 19.8504C16.1888 19.8504 17.37 18.6692 17.37 16.0704C17.37 13.3929 16.1888 12.2904 14.3381 12.2904H10.9519V23.788H13.5506V19.8504H14.1413Z" fill="#030303"/>
</svg>

<svg xmlns="http://www.w3.org/2000/svg" width="36" height="36" fill="none"><rect width="36" height="36" fill="#66BE92" rx="18"/><path fill="#030303" d="M8.038 17.212c1.024.985 2.008 1.812 2.008 3.544 0 1.89-.945 3.19-3.11 3.19-1.536 0-2.993-.63-3.111-3.072l-.04-.905 2.088-.119.039.552c.079 1.102.472 1.457 1.024 1.457.472 0 .708-.276.708-.867 0-.787-.866-1.496-1.732-2.205-1.26-1.102-1.969-2.047-1.969-3.7 0-1.694.985-3.033 3.032-3.033 1.575 0 2.796.709 2.914 3.032l.04.63-2.009.118v-.551c0-.709-.236-1.22-.866-1.22-.355 0-.709.236-.709.826-.04.866.433 1.181 1.693 2.323Zm20.357-2.992h.315c.433 0 .827.236.827 1.732 0 1.457-.473 1.693-.906 1.693h-.236V14.22Zm3.82 9.568-1.34-5.237c.788-.59 1.26-1.654 1.26-2.953 0-2.166-1.18-3.308-2.992-3.308h-3.347v11.498h2.599v-4.646h.197l1.024 4.646h2.598Zm-9.923-5.749c0 3.19-.433 3.859-1.181 3.859h-.394V14.22h.394c.748 0 1.18.63 1.18 3.82Zm-4.174 5.749h3.308c2.323 0 3.504-1.85 3.504-5.749 0-3.898-1.181-5.749-3.504-5.749h-3.308v11.498Zm-3.347-7.718c0 1.615-.433 1.89-.827 1.89h-.354v-3.74h.354c.394 0 .827.275.827 1.85Zm-.63 3.78c2.048 0 3.229-1.18 3.229-3.78 0-2.677-1.181-3.78-3.032-3.78h-3.386v11.498h2.599V19.85h.59Z"/></svg>
